Origami/22x22/apps/xmind.svg

<svg width="22" height="22" version="1" xmlns="http://www.w3.org/2000/svg">
 <rect transform="matrix(0,-1,-1,0,0,0)" x="-21" y="-21" width="20" height="20" rx="1" ry="1" style="fill:#c2352a"/>
 <path d="m2 1c-0.554 0-1 0.446-1 1v0.5c0-0.554 0.446-1 1-1h18c0.554 0 1 0.446 1 1v-0.5c0-0.554-0.446-1-1-1z" style="fill:#ffffff;opacity:.2"/>
 <path d="m2 21.5c-0.554 0-1-0.446-1-1v-0.5c0 0.554 0.446 1 1 1h18c0.554 0 1-0.446 1-1v0.5c0 0.554-0.446 1-1 1z" style="opacity:.2"/>
 <path d="m4 7.50005c-0.0220327 0.2047235 0.102225 0.8353038 0.4328723 1.545721 0.9311839 1.366847 2.2609604 1.480261 3.5671277 2.27318 0.13929 0.1563 0.1943723 0.23174-0.8740677 0.68458-1.66983 0.7078-2.7202223 1.30981-3.0400323 2.200429-0.0944 0.26317-0.13834 0.95909-0.0718 1.1342 0.0864 0.22701 0.4385123 0.225 2.0518823-0.068 1.62072-0.29431 1.69664-0.31154 1.8318-0.43412 0.2474957-0.250098 0.1942772-0.571631 0.29134-1.143679 0.0973-0.32519 0.34207-0.66479 0.60862-0.844401 1.0109097-0.68107 3.2136377-0.141541 4.2432677 0.903571 0.38797 0.393789 0.63159 0.611639 0.82601 1.222389 0.11219 0.35239 0.22611 0.50539 0.40304 0.53908 1.423363-0.456849 1.906839-0.442529 3.620561-1.01295 0.14499-0.10811 0.14557-0.4648 7e-4 -0.90194-0.2479-0.751109-0.677649-1.097999-1.474259-1.675699-0.39409-0.28579-0.89172-0.55598-1.73427-0.9422-0.8014-0.36734-0.777081-0.516593-0.682792-0.58081 0.691225-0.611932 2.944064-0.808628 2.98675-1.813556 0-0.45485-0.0897-0.8219-0.22912-0.94099-0.18545-0.1584-0.38334-0.16342-1.16207-0.0286-2.49618 0.43208-2.47945 0.41524-2.59556 0.59512 0.159239 0.5987126 0.1508 0.7176842-0.18875 0.992567-0.2485 0.22287-1.207758 0.313213-1.784768 0.313213-0.69789 0-1.423972-0.22966-1.946282-0.7621001-0.3774098-0.3847301-0.5700798-0.9086999-0.8271898-1.5937499-0.22579-0.60166-0.25676-0.665115-0.48881-0.661255-1.2169616 0.2973973-2.5209631 0.6647793-3.7642002 1z" style="opacity:.2"/>
 <path d="m4 7c-0.0220327 0.2047235 0.102225 0.8353038 0.4328723 1.5457207 0.9311839 1.3668473 2.2609604 1.4802613 3.5671277 2.2731803 0.13929 0.1563 0.1943723 0.23174-0.8740677 0.68458-1.66983 0.7078-2.7202223 1.30981-3.0400323 2.200429-0.0944 0.26317-0.13834 0.95909-0.0718 1.1342 0.0864 0.22701 0.4385123 0.225 2.0518823-0.068 1.62072-0.29431 1.69664-0.31154 1.8318-0.43412 0.2474957-0.250098 0.1942772-0.571631 0.29134-1.143679 0.0973-0.32519 0.34207-0.66479 0.60862-0.844401 1.0109097-0.68107 3.2136377-0.141541 4.2432677 0.903571 0.38797 0.393789 0.63159 0.611639 0.82601 1.222389 0.11219 0.35239 0.22611 0.50539 0.40304 0.53908 1.423363-0.456849 1.906839-0.442529 3.620561-1.01295 0.14499-0.10811 0.14557-0.4648 7e-4 -0.90194-0.2479-0.751109-0.677649-1.097999-1.474259-1.675699-0.39409-0.28579-0.89172-0.55598-1.73427-0.9422-0.8014-0.36734-0.777081-0.516593-0.682792-0.58081 0.691225-0.611932 2.944064-0.808628 2.98675-1.813556 0-0.45485-0.0897-0.8219-0.22912-0.94099-0.18545-0.1584-0.38334-0.16342-1.16207-0.0286-2.49618 0.43208-2.47945 0.41524-2.59556 0.59512 0.159239 0.5987126 0.1508 0.7176842-0.18875 0.9925674-0.2485 0.2228698-1.207758 0.3132126-1.784768 0.3132126-0.69789 0-1.423972-0.2296596-1.946282-0.7621001-0.3774098-0.3847301-0.5700798-0.9086999-0.8271898-1.5937499-0.22579-0.60166-0.25676-0.665115-0.48881-0.661255-1.2169616 0.2973973-2.5209631 0.6647793-3.7642002 1z" style="fill:#ffffff"/>
</svg>

<svg xmlns="http://www.w3.org/2000/svg" width="22" height="22" version="1">
 <rect style="fill:#c2352a" width="20" height="20" x="-21" y="-21" rx="1" ry="1" transform="matrix(0,-1,-1,0,0,0)"/>
 <path style="opacity:0.2;fill:#ffffff" d="M 2,1 C 1.446,1 1,1.446 1,2 v 0.5 c 0,-0.554 0.446,-1 1,-1 h 18 c 0.554,0 1,0.446 1,1 V 2 C 21,1.446 20.554,1 20,1 Z"/>
 <path style="opacity:0.2" d="m 2,21.5 c -0.554,0 -1,-0.446 -1,-1 V 20 c 0,0.554 0.446,1 1,1 h 18 c 0.554,0 1,-0.446 1,-1 v 0.5 c 0,0.554 -0.446,1 -1,1 z"/>
 <path style="opacity:0.2" d="M 4,7.50005 C 3.9779673,7.7047735 4.102225,8.3353538 4.4328723,9.045771 5.3640562,10.412618 6.6938327,10.526032 8,11.318951 c 0.13929,0.1563 0.1943723,0.23174 -0.8740677,0.68458 -1.66983,0.7078 -2.7202223,1.30981 -3.0400323,2.200429 -0.0944,0.26317 -0.13834,0.95909 -0.0718,1.1342 0.0864,0.22701 0.4385123,0.225 2.0518823,-0.068 1.62072,-0.29431 1.69664,-0.31154 1.8318,-0.43412 0.2474957,-0.250098 0.1942772,-0.571631 0.29134,-1.143679 0.0973,-0.32519 0.34207,-0.66479 0.60862,-0.844401 1.0109097,-0.68107 3.2136377,-0.141541 4.2432677,0.903571 0.38797,0.393789 0.63159,0.611639 0.82601,1.222389 0.11219,0.35239 0.22611,0.50539 0.40304,0.53908 1.423363,-0.456849 1.906839,-0.442529 3.620561,-1.01295 0.14499,-0.10811 0.14557,-0.4648 7e-4,-0.90194 -0.2479,-0.751109 -0.677649,-1.097999 -1.474259,-1.675699 -0.39409,-0.28579 -0.89172,-0.55598 -1.73427,-0.9422 -0.8014,-0.36734 -0.777081,-0.516593 -0.682792,-0.58081 0.691225,-0.611932 2.944064,-0.808628 2.98675,-1.813556 0,-0.45485 -0.0897,-0.8219 -0.22912,-0.94099 -0.18545,-0.1584 -0.38334,-0.16342 -1.16207,-0.0286 -2.49618,0.43208 -2.47945,0.41524 -2.59556,0.59512 0.159239,0.5987126 0.1508,0.7176842 -0.18875,0.992567 -0.2485,0.22287 -1.207758,0.313213 -1.784768,0.313213 -0.69789,0 -1.423972,-0.22966 -1.946282,-0.7621001 C 8.7027902,8.3703248 8.5101202,7.846355 8.2530102,7.161305 8.0272202,6.559645 7.9962502,6.49619 7.7642002,6.50005 6.5472386,6.7974473 5.2432371,7.1648293 4,7.50005 Z"/>
 <path style="fill:#ffffff" d="M 4,7 C 3.9779673,7.2047235 4.102225,7.8353038 4.4328723,8.5457207 5.3640562,9.912568 6.6938327,10.025982 8,10.818901 c 0.13929,0.1563 0.1943723,0.23174 -0.8740677,0.68458 -1.66983,0.7078 -2.7202223,1.30981 -3.0400323,2.200429 -0.0944,0.26317 -0.13834,0.95909 -0.0718,1.1342 0.0864,0.22701 0.4385123,0.225 2.0518823,-0.068 1.62072,-0.29431 1.69664,-0.31154 1.8318,-0.43412 0.2474957,-0.250098 0.1942772,-0.571631 0.29134,-1.143679 0.0973,-0.32519 0.34207,-0.66479 0.60862,-0.844401 1.0109097,-0.68107 3.2136377,-0.141541 4.2432677,0.903571 0.38797,0.393789 0.63159,0.611639 0.82601,1.222389 0.11219,0.35239 0.22611,0.50539 0.40304,0.53908 1.423363,-0.456849 1.906839,-0.442529 3.620561,-1.01295 0.14499,-0.10811 0.14557,-0.4648 7e-4,-0.90194 -0.2479,-0.751109 -0.677649,-1.097999 -1.474259,-1.675699 -0.39409,-0.28579 -0.89172,-0.55598 -1.73427,-0.9422 C 13.881392,10.112821 13.905711,9.963568 14,9.899351 c 0.691225,-0.611932 2.944064,-0.808628 2.98675,-1.813556 0,-0.45485 -0.0897,-0.8219 -0.22912,-0.94099 -0.18545,-0.1584 -0.38334,-0.16342 -1.16207,-0.0286 C 13.09938,7.548285 13.11611,7.531445 13,7.711325 13.159239,8.3100376 13.1508,8.4290092 12.81125,8.7038924 12.56275,8.9267622 11.603492,9.017105 11.026482,9.017105 10.328592,9.017105 9.60251,8.7874454 9.0802,8.2550049 8.7027902,7.8702748 8.5101202,7.346305 8.2530102,6.661255 8.0272202,6.059595 7.9962502,5.99614 7.7642002,6 6.5472386,6.2973973 5.2432371,6.6647793 4,7 Z"/>
</svg>
